icon/fa/folder-plus.svg

<svg xmlns="http://www.w3.org/2000/svg" viewBox="0 0 512 512"><!--! Font Awesome Free 6.1.2 by @fontawesome - https://fontawesome.com License - https://fontawesome.com/license/free (Icons: CC BY 4.0, Fonts: SIL OFL 1.1, Code: MIT License) Copyright 2022 Fonticons, Inc.--><path d="M464 96H272l-64-64H48C21.5 32 0 53.5 0 80v352c0 26.5 21.5 48 48 48h416c26.5 0 48-21.5 48-48V144c0-26.5-21.5-48-48-48zM336 311.1h-56v56c-.9 14.2-10.7 24.9-24 24.9-13.27 0-23.1-10.74-23.1-23.1v-57.8h-57.8c-12.4 0-23.1-9.8-23.1-23.1 0-13.26 10.74-23.1 23.1-23.1h56v-57.8c.9-12.4 11.6-23.1 24.9-23.1s23.1 10.74 23.1 23.1V264h56c14.2 0 24.9 10.7 24.9 24s-10.7 23.1-24 23.1z"/></svg>

<svg xmlns="http://www.w3.org/2000/svg" viewBox="0 0 512 512" height="1em" width="1em">
<!--! Font Awesome Free 6.1.2 by @fontawesome - https://fontawesome.com License - https://fontawesome.com/license/free (Icons: CC BY 4.0, Fonts: SIL OFL 1.1, Code: MIT License) Copyright 2022 Fonticons, Inc.-->
  <path d="M464 96h-192l-64-64h-160C21.5 32 0 53.5 0 80v352C0 458.5 21.5 480 48 480h416c26.5 0 48-21.5 48-48v-288C512 117.5 490.5 96 464 96zM336 311.1h-56v56C279.1 381.3 269.3 392 256 392c-13.27 0-23.1-10.74-23.1-23.1V311.1H175.1C162.7 311.1 152 301.3 152 288c0-13.26 10.74-23.1 23.1-23.1h56V207.1C232 194.7 242.7 184 256 184s23.1 10.74 23.1 23.1V264h56C349.3 264 360 274.7 360 288S349.3 311.1 336 311.1z"/>
</svg>
